assets/static/svgs/logos/logo-slots-short.svg

<svg width="1em" height="1em"  viewBox="0 0 20 30" fill="none"  xmlns="http://www.w3.org/2000/svg">
<symbol id="item"
width="1em"
height="1em"
viewBox="0 0 20 30"
fill="none"
>
  <path d="M13.0817 14.1682L10.5442 13.1532C8.68331 12.4765 7.55552 11.9126 7.04801 11.4615C6.5405 11.0667 6.31494 10.3901 6.31494 9.54422C6.31494 7.62697 7.89385 6.27362 10.2058 6.27362C11.7284 6.27362 13.0253 7.00668 14.2095 8.47281L18.7771 7.06307C16.8598 3.51052 14.0403 1.70605 10.375 1.70605C7.95024 1.70605 5.86383 2.49551 4.05936 3.96164C2.36767 5.42777 1.52182 7.34502 1.52182 9.657C1.52182 12.8712 3.43907 15.2396 7.21718 16.6493L10.0367 17.7207C11.7847 18.3974 12.9689 18.9613 13.5328 19.4688C14.0403 19.9199 14.3223 20.5966 14.3223 21.4988C14.3223 22.4575 13.9839 23.3033 13.3073 24.0364C12.5742 24.9386 11.5028 25.3333 10.0367 25.3333C7.72468 25.3333 6.37133 24.2619 4.79242 21.2169L0.28125 22.6266C2.14211 27.5325 5.41271 29.9573 9.92388 29.9573C12.5742 29.9573 14.7734 29.1678 16.5779 27.5325C18.4951 25.8408 19.4537 23.7544 19.4537 21.2169C19.341 18.0027 17.4801 15.8599 13.0817 14.1682Z" fill="currentColor"/>  <path d="M6.82314 3.3968C6.82314 5.31405 5.30062 6.78018 3.38338 6.78018C1.46613 6.78018 0 5.25766 0 3.34041C0 2.43818 0.338337 1.64872 1.01501 0.972045C1.69169 0.295369 2.48114 -0.0429688 3.38338 -0.0429688C5.30062 -0.0429688 6.82314 1.47955 6.82314 3.3968Z" fill="#F7CD00"/> 
</symbol>
</svg>

<svg width="1em" height="1em"    viewBox="0 0 20 30" fill="none" xmlns="http://www.w3.org/2000/svg">
<symbol id="item"
width="1em"
height="1em"
viewBox="0 0 20 30"
fill="none"
>
<path d="m13.082 14.168-2.538-1.015c-1.86-.677-2.988-1.24-3.496-1.692-.508-.394-.733-1.07-.733-1.917 0-1.917 1.579-3.27 3.89-3.27 1.523 0 2.82.733 4.005 2.199l4.567-1.41c-1.917-3.552-4.737-5.357-8.402-5.357-2.425 0-4.511.79-6.316 2.256-1.691 1.466-2.537 3.383-2.537 5.695 0 3.214 1.917 5.583 5.695 6.992l2.82 1.072c1.748.676 2.932 1.24 3.496 1.748.507.45.79 1.128.79 2.03 0 .959-.34 1.804-1.016 2.537-.733.903-1.804 1.297-3.27 1.297-2.312 0-3.666-1.071-5.245-4.116l-4.51 1.41c1.86 4.905 5.13 7.33 9.642 7.33 2.65 0 4.85-.79 6.654-2.425 1.917-1.691 2.876-3.778 2.876-6.315-.113-3.214-1.974-5.357-6.372-7.049Z" fill="currentColor"/><path d="M6.823 3.397c0 1.917-1.522 3.383-3.44 3.383C1.466 6.78 0 5.258 0 3.34 0 2.438.338 1.65 1.015.972 1.692.295 2.481-.043 3.383-.043a3.418 3.418 0 0 1 3.44 3.44Z" fill="#F7CD00"/>
</symbol>
</svg>
